X: 9
T: Cantiga 9: Por que nos ajamos
N: 
B:Cantigas de Santa Maria
F:http://www.pbm.com/~lindahl/cantigas/facsimiles/E/073small.html
F:http://www.pbm.com/~lindahl/cantigas/facsimiles/To/bob009small.gif
F:http://www.pbm.com/~lindahl/cantigas/facsimiles/To/bob010small.gif
Z:Ali Corbin <ali.corbin:gmail.com>
M: 6/8
L: 1/8
Q: 1/8=240
K: D Dorian
V:1
%Staff 1
%%MIDI program 74
%
   F2   E  F (FG)|A3 A3|  G2  A   _B2   A|(AG2) F3| G2  F  E  D2| F3  F3|
w:Por que nos a-* ja-mos sen-pre, noit' e  di-* a,  de-la re-nen-bran-ça, 
   F2  E  F (FG)| A3 A3|  G2  A  _B2  A |(AG2) F3| G2  F    E C2|(D2E)   D3||
w:en Do-mas a-* cha-mos  que San- ta Ma-  ri-* a  fez gran de-mo- stran-*ça.
  F2  E F (FG)|A3 A3|  c3  d  c   B|A3 G3|   A  c2  B A2 |G3 F3 | G2  F   E  D2| F3 F3 |
w:En e-sta ci-*da-de, que vos ei ja di-ta, ouv' y hu-ma  do-na   de mui san-ta  vi-da,
   F2  E  F (FG)| A3  A3  |c3  d  c  B |A3  G3|  A c2 B A2 |G3 F3| G2 F  E   C2|(D2E) D3||
w:mui fa-ze-dor* d'al-gu'e de to-do mal qui-ta, ri-ca e mui no-bre e de ben com- pri-*da.
    F2   E   F (FG)|A3  A3| G2  A _B2  A |(AG2) F3|G2  F   E D2| F3 F3|
w: Mas, por que sa-*biá-mos co-mo non que- ri-* a  do mun-do ga-ban-ça,
   F2  E  F (FG)|A3 A3| G2   A  _B2  A|(AG2) F3| G2 F   E  C2|(D2E) D3||
w: co-mo fez di-*ga-mos hum' al-ber-ga- ri-* a,  u fil-lou mo- ran-*ça.
%
%%begintext center
%%
%%
%%Esta é como Santa Maria fez en Sardonay, preto de domas, que a ssa omagen, 
%%que era pintada en huma tavoa, sse fezesse carne e manass' oyo.
%%
%%
%% Por que nos ajamos | senpre, noit' e dia, | dela renenbrança,
%% en Domas achamos   | que Santa Maria      | fez gran demostrança.
%%endtext
W:En esta cidade, | que vos ei ja dita,
W:ouv' y huma dona | de mui santa vida,
W:mui fazedor d'algu' e | de todo mal quita,
W:rica e mui nobre | e de ben comprida.
W: Mas, por que sabiámos
W: como non queria
W: do mundo gabança,
W: como fez digamos
W: hum' albergaria,
W: u fillou morança.
W:%%
W: Por que nos ajamos...
W:%% 
W:E ali morand' e | muito ben fazendo
W:a toda-las gentes | que per y passavan,
W:veio y un monge, | segund' eu aprendo,
W:que pousou con ela, | com' outros pousavan.
W: Diss' ela: «Ouçamos
W: u tedes via,
W: se ides a França.»
W: Diss' el: «Mas cuidamos
W: dereit' a Suria
W: log' ir sen tardança.»
W:%%
W: Por que nos ajamos...
W:%%
W:Log' enton a dona, | chorando dos ollos,
W:muito lle rogava | que per y tornasse,
W:des que el ouvesse | fito-los geollos
W:ant' o San Sepulcro | e en el beijasse.
W: «E mais vos rogamos
W: que, sse vos prazia,
W: huma semellança
W: que dalá vejamos
W: da que sempre guia
W: os seus sen errança.»
W:%%
W: Por que nos ajamos...
W:%%
W:Pois que foi o monge | na santa cidade,
W:u Deus por nos morte | ena cruz prendera,
W:comprido seu feito, | ren da magestade
W:non lle veio a mente, | que el prometera;
W: mas disse: «Movamos,»
W: a sa conpania,
W: «que gran demorança
W: aqui u estamos
W: bõa non seria
W: sen aver pitança.»
W:%%
W: Por que nos ajamos...
W:%%
W:Quand' est' ouve dito, | cuidou-ss' ir sen falla;
W:mas a voz do ceo | lle disse: «Mesqyo,
W:e como non levas, | ase Deus te valla,
W:a omagen tigo | e vas teu camyo?
W: Esto non loamos;
W: ca mal ch'estaria
W: que, per obridança,
W: se a que amamos
W: monja non avia
W: da Virgen senbrança.»
W:%%
W: Por que nos ajamos...
W:%%
W:Mantenent' o frade | os que con el yan
W:leixou ir, e logo | tornou sen tardada
W:e foi buscar u as | omages vendian,
W:e comprou end' ua, | a mellor pintada.
W: Diss' el: «Ben mercamos;
W: e quen poderia
W: a esta osmança
W: põer? E vaamos
W: a noss' abadia
W: con esta gaança.»
W:%%
W: Por que nos ajamos...
W:%%
W:E pois que o monge | aquesto feit' ouve,
W:foi-ss' enton sa vi', a | omagen no seio.
W:E log' y a preto | un leon, u jouve,
W:achou, que correndo | pera ele veio
W: de so uns ramos,
W: non con felonia,
W: mas con omildança;
W: por que ben creamos
W: que Deus o queria
W: guardar, sen dultança.
W:%%
W: Por que nos ajamos...
W:%%
W:Des quando o monge | do leon foi quito,
W:que, macar se fora, | non perdera medo
W:del, a pouca d'ora | un ladron maldito,
W:que romeus roubava, | diss' aos seus quedo:
W: «Por que non matamos
W: este, pois desvia?
W: Dar-ll-ei con mia lança,
W: e o seu partamos,
W: logo sen perfia
W: todos per iguança.»
W:%%
W: Por que nos ajamos...
W:%% 
W:Quand' est' ouve dito, | quis en el dar salto,
W:dizendo: «Matemo- | lo ora, irmãos.»
W:Mas a voz do ceo | lles disse mui d'alto:
W:«Sandeus, non ponnades | en ele as mãos;
W: ca nos lo guardamos
W: de malfeitoria
W: e de malandança,
W: e ben vos mostramos
W: que Deus prenderia
W: de vos gran vingança.»
W:%%
W: Por que nos ajamos...
W:%%
W:Pois na majestade | viu tan gran vertude,
W:o mong' enton disse: | «Como quer que seja,
W:bõa será esta, | asse Deus m'ajude,
W:en Costantinoble | na nossa eigreja;
W: ca, se a levamos
W: allur, bavequia
W: e gran malestança
W: sera, non erramos.»
W: E ao mar s' ya
W: con tal acordança.
W:%%
W: Por que nos ajamos...
W:%%
W:E en huma nave | con outra gran gente
W:entrou, e gran peça | pelo mar singraron;
W:mas huma tormenta | veio mantenente,
W:que do que tragian | muit' en mar deitaron,
W: por guarir, osmamos.
W: E ele prendia
W: con desasperança
W: a que aoramos,
W: que sigo tragia
W: por sa delivrança,
W:%%
W: Por que nos ajamos...
W:%%
W:Por no mar deita-la. | Que a non deitasse
W:huma voz lle disse, | ca era peccado,
W:mas contra o ceo | suso a alçasse,
W:e o tempo forte | seria quedado.
W: Diz: «Prestes estamos.»
W: Enton a ergia
W: e diz con fiança:
W: «A ti graças damos
W: que es alegria
W: noss' e amparança.»
W:%%
W: Por que nos ajamos...
W:%%
W:E log' a tormenta | quedou essa ora,
W:e a nav' a Acre | enton foi tornada;
W:e con ssa omagen | o monge foi fora
W:e foi-sse a casa | da dona onrrada.
W: Ora retrayamos
W: quan grand' arteria
W: fez per antollança;
W: mas, como penssamos,
W: tanto lle valrria
W: com' huma garvança,
W:%%
W: Por que nos ajamos...
W:%% 
W:O monge da dona | non foi connoçudo,
W:onde prazer ouve, | e ir-se quisera;
W:logo da capela | u era metudo
W:non viu end' a porta | nen per u veera.
W: «Por que non leixamos.»
W: contra ssi dizia,
W: «e sen demorança,
W: esta que conpramos,
W: e Deus tiraria
W: nos desta balança?»
W:%%
W: Por que nos ajamos...
W:%%
W:El esto penssando, | viu a port' aberta
W:e foi aa dona | contar ssa fazenda,
W:e deu-ll' a omagen, | ond' ela foi certa,
W:e sobelo altar | a pos por emenda.
W: Carne, non dultamos,
W: se fez e saya
W: dela, mas non rança,
W: grossain, e sejamos
W: certos que corria
W: e corr' avondança.
W:%%
W: Por que nos ajamos...


%%landscape 0
